aws.svg

<svg viewBox="0 0 24 24" xmlns="http://www.w3.org/2000/svg"><path d="M7.00219 14.5973L4.8035 15.5417L6.83975 16.4125L9.20089 15.5417L7.00219 14.5973ZM3.69659 15.7778L3.62292 20.0279L6.83973 21.4445L6.83973 17.0321C6.83973 17.0321 3.69659 15.7778 3.69659 15.7778ZM10.3078 15.7778L7.40073 16.8847L7.40073 21.046L10.3078 19.8654C10.3078 19.8654 10.3078 15.7778 10.3078 15.7778ZM13.7758 2.55546L11.562 3.49994L13.6133 4.37072L15.9745 3.49994C15.9745 3.49994 13.7758 2.55546 13.7758 2.55546ZM10.7063 3.81019L10.7063 8.06022L13.4509 8.85733L13.5397 4.99073C13.5397 4.99073 10.7063 3.81019 10.7063 3.81019ZM16.8453 4.04628L14.2481 5.15319L14.2481 9.32958L16.8453 8.14901L16.8453 4.04628L16.8453 4.04628ZM3.37926 8.53717L1.18057 9.48163L3.21682 10.3524L5.57795 9.48163L3.37926 8.53717ZM0.0736722 9.71774L-1.31006e-14 13.9678L3.21681 15.3845L3.21681 10.972L0.0736722 9.71774ZM6.68486 9.71774L3.77783 10.8246L3.77783 14.9859L6.68486 13.8053L6.68486 9.71774ZM10.4627 8.38038L8.26398 9.32484L10.3002 10.1956L12.6614 9.32484L10.4627 8.38038ZM7.15707 9.56097L7.08339 13.811L10.3002 15.2277L10.3002 10.8157C10.3002 10.8157 7.15707 9.56097 7.15707 9.56097ZM13.7683 9.56097L10.8612 10.6679L10.8612 14.8291L13.7683 13.6486C13.7683 13.6486 13.7683 9.56097 13.7683 9.56097ZM20.6944 2.55546L18.4957 3.49992L20.532 4.3707L22.8931 3.49992C22.8931 3.49992 20.6944 2.55546 20.6944 2.55546ZM17.3888 3.73603L17.3152 7.98607L20.532 9.40274L20.532 4.99073C20.532 4.99073 17.3888 3.73603 17.3888 3.73603ZM24 3.73603L21.093 4.84292L21.093 9.00419L24 7.82363C24 7.82363 24 3.73603 24 3.73603Z" fill="#f7a80d"/></svg>

<svg viewBox="0 0 24 24" xmlns="http://www.w3.org/2000/svg"><path d="m7.002 14.597-2.199.945 2.037.87 2.36-.87-2.198-.945Zm-3.305 1.18-.074 4.25 3.217 1.418v-4.413l-3.143-1.254Zm6.61 0-2.906 1.108v4.161l2.907-1.18v-4.088Zm3.469-13.222-2.214.945 2.051.87 2.362-.87-2.2-.945Zm-3.07 1.255v4.25l2.745.797.089-3.866-2.834-1.18Zm6.14.236-2.598 1.107V9.33l2.597-1.181V4.046ZM3.378 8.537l-2.198.945 2.036.87 2.361-.87-2.199-.945ZM.074 9.717 0 13.968l3.217 1.417v-4.412L.074 9.718Zm6.61 0-2.906 1.108v4.16l2.907-1.18V9.718Zm3.779-1.337-2.199.945 2.036.87 2.361-.87-2.198-.945ZM7.157 9.561l-.074 4.25 3.217 1.417v-4.412L7.157 9.56Zm6.611 0-2.907 1.107v4.161l2.907-1.18V9.56Zm6.926-7.006-2.198.945 2.036.87 2.361-.87-2.199-.945ZM17.39 3.736l-.074 4.25 3.217 1.417V4.99l-3.143-1.255Zm6.611 0-2.907 1.107v4.161L24 7.824V3.736Z" fill="#f7a80d"/></svg>
